assets/Alembic/Flat/alembic_flat.svg

<svg width="32" height="32" viewBox="0 0 32 32" fill="none" xmlns="http://www.w3.org/2000/svg">
<path d="M17.4506 5.84483L29.999 12L28.999 14L23.0165 11.6279C23.999 13 23.999 14.1322 23.999 15.5C23.999 21.0054 19.5993 25.515 14.2512 25.9634L13.5547 26.707L12.7536 25.9815C7.30877 25.6565 2.99902 21.0919 2.99902 15.5C2.99902 9.69684 7.64061 5 13.3755 5C14.8167 5 16.1982 5.30172 17.4506 5.84483Z" fill="#AEDDFF"/>
<path d="M13.5041 25C18.7521 25 22.999 20.5165 22.999 15H3.99902C3.99902 20.5165 8.25607 25 13.5041 25Z" fill="#00D26A"/>
<path d="M9 18C9.55228 18 10 17.5523 10 17C10 16.4477 9.55228 16 9 16C8.44772 16 8 16.4477 8 17C8 17.5523 8.44772 18 9 18Z" fill="#D3F093"/>
<path d="M13 19C13.5523 19 14 18.5523 14 18C14 17.4477 13.5523 17 13 17C12.4477 17 12 17.4477 12 18C12 18.5523 12.4477 19 13 19Z" fill="#D3F093"/>
<path d="M12 23C12 23.5523 11.5523 24 11 24C10.4477 24 10 23.5523 10 23C10 22.4477 10.4477 22 11 22C11.5523 22 12 22.4477 12 23Z" fill="#D3F093"/>
<path d="M18.2929 11.2929C18.6834 10.9024 19.3166 10.9024 19.7071 11.2929C20.7279 12.3137 21.1208 14.007 21.1866 15.5191C21.2539 17.0681 20.9928 18.7504 20.3944 19.9472C20.1474 20.4412 19.5468 20.6414 19.0528 20.3944C18.5588 20.1474 18.3586 19.5468 18.6056 19.0528C19.0072 18.2496 19.2461 16.9319 19.1884 15.6059C19.1292 14.243 18.7721 13.1863 18.2929 12.7071C17.9024 12.3166 17.9024 11.6834 18.2929 11.2929Z" fill="white"/>
<path d="M2.9995 19.75C2.9995 19.3358 3.33529 19 3.7495 19H23.2495C23.6637 19 23.9995 19.3358 23.9995 19.75C23.9995 20.1642 23.6637 20.5 23.2495 20.5H18.7933L24.8558 28.8079C25.1 29.1425 25.0267 29.6117 24.6921 29.8558C24.3575 30.1 23.8883 30.0267 23.6441 29.6921L16.9364 20.5H10.0636L3.35583 29.6921C3.11167 30.0267 2.64249 30.1 2.30789 29.8558C1.97329 29.6117 1.89998 29.1425 2.14415 28.8079L8.20667 20.5H3.7495C3.33529 20.5 2.9995 20.1642 2.9995 19.75Z" fill="#635994"/>
<path d="M12.7495 29.25V25.9812C12.9565 25.9937 13.1653 26 13.3754 26C13.6692 26 13.9607 25.9877 14.2495 25.9635V29.25C14.2495 29.6642 13.9137 30 13.4995 30C13.0852 30 12.7495 29.6642 12.7495 29.25Z" fill="#635994"/>
</svg>

<svg xmlns="http://www.w3.org/2000/svg" width="32" height="32" fill="none"><path fill="#AEDDFF" d="M17.45 5.845 30 12l-1 2-5.982-2.372c.982 1.372.982 2.504.982 3.872 0 5.505-4.4 10.015-9.748 10.463l-.696.744-.801-.726c-5.445-.325-9.755-4.89-9.755-10.481C2.999 9.697 7.641 5 13.376 5c1.44 0 2.822.302 4.075.845Z"/><path fill="#00D26A" d="M13.504 25C18.752 25 23 20.517 23 15h-19c0 5.517 4.257 10 9.505 10Z"/><path fill="#D3F093" d="M9 18a1 1 0 1 0 0-2 1 1 0 0 0 0 2ZM13 19a1 1 0 1 0 0-2 1 1 0 0 0 0 2ZM12 23a1 1 0 1 1-2 0 1 1 0 0 1 2 0Z"/><path fill="#fff" d="M18.293 11.293a1 1 0 0 1 1.414 0c1.02 1.02 1.414 2.714 1.48 4.226.067 1.55-.194 3.231-.793 4.428a1 1 0 1 1-1.788-.894c.401-.803.64-2.121.582-3.447-.059-1.363-.416-2.42-.895-2.899a1 1 0 0 1 0-1.414Z"/><path fill="#635994" d="M3 19.75a.75.75 0 0 1 .75-.75h19.5a.75.75 0 0 1 0 1.5h-4.457l6.063 8.308a.75.75 0 1 1-1.212.884L16.936 20.5h-6.872l-6.708 9.192a.75.75 0 1 1-1.212-.884L8.207 20.5H3.749a.75.75 0 0 1-.75-.75Z"/><path fill="#635994" d="M12.75 29.25v-3.269a10.386 10.386 0 0 0 1.5-.018v3.287a.75.75 0 0 1-1.5 0Z"/></svg>
